public/images/data/헤미셀란 - 라이소좀 효소 활성.svg

<?xml version="1.0" encoding="UTF-8"?>
<svg id="_레이어_1" data-name="레이어 1" xmlns="http://www.w3.org/2000/svg" viewBox="0 0 189.034 141.355">
  <defs>
    <style>
      .cls-1 {
        font-size: 6.72px;
      }

      .cls-1, .cls-2 {
        font-family: Calibri-Bold, Calibri;
        font-weight: 700;
      }

      .cls-3 {
        letter-spacing: -.006em;
      }

      .cls-4 {
        letter-spacing: .01em;
      }

      .cls-5 {
        letter-spacing: 0em;
      }

      .cls-6 {
        stroke: #868686;
        stroke-width: .622px;
      }

      .cls-6, .cls-7 {
        fill: none;
        stroke-linejoin: round;
      }

      .cls-8 {
        letter-spacing: .008em;
      }

      .cls-9 {
        letter-spacing: -.009em;
      }

      .cls-10 {
        letter-spacing: -.005em;
      }

      .cls-11, .cls-12, .cls-13 {
        stroke-width: 0px;
      }

      .cls-14 {
        letter-spacing: -.001em;
      }

      .cls-15 {
        letter-spacing: .009em;
      }

      .cls-16 {
        letter-spacing: .007em;
      }

      .cls-17, .cls-18 {
        font-family: Calibri, Calibri;
      }

      .cls-17, .cls-2 {
        font-size: 9.96px;
      }

      .cls-19 {
        fill: #231f20;
        font-family: AppleSDGothicNeoEB00, AppleSDGothicNeoEB00;
        font-size: 12px;
      }

      .cls-20 {
        letter-spacing: -.003em;
      }

      .cls-21 {
        font-family: AppleSDGothicNeoR00, AppleSDGothicNeoR00;
      }

      .cls-21, .cls-18 {
        font-size: 6.96px;
      }

      .cls-22 {
        letter-spacing: -.006em;
      }

      .cls-23 {
        letter-spacing: .01em;
      }

      .cls-24 {
        letter-spacing: .002em;
      }

      .cls-25 {
        letter-spacing: -.006em;
      }

      .cls-26 {
        letter-spacing: 0em;
      }

      .cls-27 {
        letter-spacing: .012em;
      }

      .cls-7 {
        stroke: #bfbfbf;
        stroke-width: .72px;
      }

      .cls-12 {
        fill: #7296ce;
      }

      .cls-12, .cls-13 {
        fill-rule: evenodd;
      }

      .cls-28 {
        letter-spacing: .009em;
      }

      .cls-29 {
        letter-spacing: .011em;
      }

      .cls-30 {
        letter-spacing: -.003em;
      }

      .cls-13 {
        fill: #9c5353;
      }
    </style>
  </defs>
  <polygon class="cls-12" points="44.559 116.241 58.359 116.241 58.359 119.481 44.559 119.481 44.559 116.241 44.559 116.241"/>
  <polygon class="cls-13" points="78.879 66.081 92.679 66.081 92.679 119.481 78.879 119.481 78.879 66.081 78.879 66.081"/>
  <polygon class="cls-12" points="128.955 68.001 142.635 68.001 142.635 119.481 128.955 119.481 128.955 68.001 128.955 68.001"/>
  <polygon class="cls-12" points="163.275 42.441 177.075 42.441 177.075 119.481 163.275 119.481 163.275 42.441 163.275 42.441"/>
  <g>
    <path class="cls-11" d="m51.519,116.241v-.24m-2.28,0h4.44"/>
    <path class="cls-7" d="m51.519,116.241v-.24m-2.28,0h4.44"/>
  </g>
  <g>
    <path class="cls-11" d="m85.839,66.081v-3.96m-2.28,0h4.44"/>
    <path class="cls-7" d="m85.839,66.081v-3.96m-2.28,0h4.44"/>
  </g>
  <g>
    <path class="cls-11" d="m135.795,68.001v-4.08m-2.28,0h4.56"/>
    <path class="cls-7" d="m135.795,68.001v-4.08m-2.28,0h4.56"/>
  </g>
  <g>
    <path class="cls-11" d="m170.115,42.441v-5.88m-2.16,0h4.44"/>
    <path class="cls-7" d="m170.115,42.441v-5.88m-2.16,0h4.44"/>
  </g>
  <line class="cls-7" x1="34.239" y1="119.481" x2="34.239" y2="26.841"/>
  <path class="cls-7" d="m31.119,119.481h3.12m-3.12-18.48h3.12m-3.12-18.6h3.12m-3.12-18.48h3.12m-3.12-18.48h3.12m-3.12-18.6h3.12"/>
  <line class="cls-6" x1="34.239" y1="119.481" x2="188.195" y2="119.481"/>
  <text class="cls-17" transform="translate(19.939 122.305)"><tspan x="0" y="0">0</tspan></text>
  <text class="cls-17" transform="translate(12.353 103.774)"><tspan x="0" y="0">0.5</tspan></text>
  <text class="cls-17" transform="translate(19.939 85.258)"><tspan x="0" y="0">1</tspan></text>
  <text class="cls-17" transform="translate(12.353 66.734)"><tspan x="0" y="0">1.5</tspan></text>
  <text class="cls-17" transform="translate(19.939 48.219)"><tspan x="0" y="0">2</tspan></text>
  <text class="cls-17" transform="translate(12.353 29.695)"><tspan x="0" y="0">2.5</tspan></text>
  <text class="cls-18" transform="translate(40.791 130.641)"><tspan class="cls-30" x="0" y="0">v</tspan><tspan class="cls-24" x="3.123" y="0">e</tspan><tspan class="cls-8" x="6.6" y="0">c</tspan><tspan class="cls-28" x="9.598" y="0">h</tspan><tspan class="cls-9" x="13.318" y="0">c</tspan><tspan class="cls-29" x="16.198" y="0">l</tspan><tspan x="17.872" y="0">e</tspan></text>
  <text class="cls-18" transform="translate(80.908 130.641)"><tspan class="cls-23" x="0" y="0">L</tspan><tspan x="2.996" y="0">PS</tspan></text>
  <g>
    <text class="cls-21" transform="translate(122.915 130.703)"><tspan x="0" y="0">헤미셀란</tspan><tspan x="-2.916" y="8.352">(10μg/mL)</tspan></text>
    <text class="cls-21" transform="translate(159.844 130.703)"><tspan x="0" y="0">헤미셀란</tspan><tspan x="-5.108" y="8.352">(100μg/mL)</tspan></text>
  </g>
  <text class="cls-18" transform="translate(69.908 139.18)"><tspan class="cls-16" x="0" y="0">(</tspan><tspan class="cls-22" x="2.159" y="0">1</tspan><tspan class="cls-4" x="5.645" y="0">0</tspan><tspan class="cls-22" x="9.242" y="0">0</tspan><tspan class="cls-15" x="12.728" y="0">n</tspan><tspan class="cls-27" x="16.447" y="0">g</tspan><tspan class="cls-3" x="19.807" y="0">/</tspan><tspan class="cls-29" x="22.453" y="0">m</tspan><tspan class="cls-10" x="28.09" y="0">l</tspan><tspan x="29.652" y="0">)</tspan></text>
  <text class="cls-2" transform="translate(8.126 86.57) rotate(-90)"><tspan class="cls-14" x="0" y="0">O</tspan><tspan class="cls-20" x="6.726" y="0">D</tspan><tspan class="cls-26" x="12.974" y="0"> </tspan></text>
  <text class="cls-1" transform="translate(10.533 71.227) rotate(-90)"><tspan class="cls-25" x="0" y="0">405</tspan><tspan class="cls-5" x="10.097" y="0">nm</tspan></text>
  <text class="cls-19" transform="translate(62.567 10.56)"><tspan x="0" y="0">라이소좀 효소 활성</tspan></text>
</svg>

<?xml version="1.0" encoding="utf-8"?>
<!-- Generator: Adobe Illustrator 28.0.0, SVG Export Plug-In . SVG Version: 6.00 Build 0)  -->
<svg version="1.1" id="_레이어_1" xmlns="http://www.w3.org/2000/svg" xmlns:xlink="http://www.w3.org/1999/xlink" x="0px"
	 y="0px" viewBox="0 0 189 141.4" style="enable-background:new 0 0 189 141.4;" xml:space="preserve">
<style type="text/css">
	.st0{fill:#FFFFFF;}
	.st1{fill-rule:evenodd;clip-rule:evenodd;fill:#7296CE;}
	.st2{fill-rule:evenodd;clip-rule:evenodd;fill:#9C5353;}
	.st3{fill:none;stroke:#BFBFBF;stroke-width:0.72;stroke-linejoin:round;}
	.st4{fill:none;stroke:#868686;stroke-width:0.622;stroke-linejoin:round;}
	.st5{font-family:'Calibri';}
	.st6{font-size:9.96px;}
	.st7{font-size:6.96px;}
	.st8{font-family:'AppleSDGothicNeoR00';}
	.st9{font-family:'Calibri-Bold';}
	.st10{font-size:6.72px;}
	.st11{fill:#231F20;}
	.st12{font-family:'AppleSDGothicNeoEB00';}
	.st13{font-size:12px;}
</style>
<rect class="st0" width="189.9" height="141.4"/>
<polygon class="st1" points="44.6,116.2 58.4,116.2 58.4,119.5 44.6,119.5 44.6,116.2 "/>
<polygon class="st2" points="78.9,66.1 92.7,66.1 92.7,119.5 78.9,119.5 78.9,66.1 "/>
<polygon class="st1" points="129,68 142.6,68 142.6,119.5 129,119.5 129,68 "/>
<polygon class="st1" points="163.3,42.4 177.1,42.4 177.1,119.5 163.3,119.5 163.3,42.4 "/>
<g>
	<path d="M51.5,116.2V116 M49.2,116h4.4"/>
	<path class="st3" d="M51.5,116.2V116 M49.2,116h4.4"/>
</g>
<g>
	<path d="M85.8,66.1v-4 M83.6,62.1H88"/>
	<path class="st3" d="M85.8,66.1v-4 M83.6,62.1H88"/>
</g>
<g>
	<path d="M135.8,68v-4.1 M133.5,63.9h4.6"/>
	<path class="st3" d="M135.8,68v-4.1 M133.5,63.9h4.6"/>
</g>
<g>
	<path d="M170.1,42.4v-5.9 M168,36.6h4.4"/>
	<path class="st3" d="M170.1,42.4v-5.9 M168,36.6h4.4"/>
</g>
<line class="st3" x1="34.2" y1="119.5" x2="34.2" y2="26.8"/>
<path class="st3" d="M31.1,119.5h3.1 M31.1,101h3.1 M31.1,82.4h3.1 M31.1,63.9h3.1 M31.1,45.4h3.1 M31.1,26.8h3.1"/>
<line class="st4" x1="34.2" y1="119.5" x2="188.2" y2="119.5"/>
<text transform="matrix(1 0 0 1 19.939 122.305)" class="st5 st6">0</text>
<text transform="matrix(1 0 0 1 12.353 103.774)" class="st5 st6">0.5</text>
<text transform="matrix(1 0 0 1 19.939 85.258)" class="st5 st6">1</text>
<text transform="matrix(1 0 0 1 12.353 66.734)" class="st5 st6">1.5</text>
<text transform="matrix(1 0 0 1 19.939 48.219)" class="st5 st6">2</text>
<text transform="matrix(1 0 0 1 12.353 29.695)" class="st5 st6">2.5</text>
<text transform="matrix(1 0 0 1 40.791 130.641)" class="st5 st7">v</text>
<text transform="matrix(1 0 0 1 43.914 130.641)" class="st5 st7">e</text>
<text transform="matrix(1 0 0 1 47.391 130.641)" class="st5 st7">c</text>
<text transform="matrix(1 0 0 1 50.389 130.641)" class="st5 st7">h</text>
<text transform="matrix(1 0 0 1 54.109 130.641)" class="st5 st7">c</text>
<text transform="matrix(1 0 0 1 56.989 130.641)" class="st5 st7">l</text>
<text transform="matrix(1 0 0 1 58.663 130.641)" class="st5 st7">e</text>
<text transform="matrix(1 0 0 1 80.908 130.641)" class="st5 st7">L</text>
<text transform="matrix(1 0 0 1 83.904 130.641)" class="st5 st7">PS</text>
<g>
	<text transform="matrix(1 0 0 1 122.915 130.703)" class="st8 st7">헤미셀란</text>
	<text transform="matrix(1 0 0 1 119.999 139.055)" class="st8 st7">(10μg/mL)</text>
	<text transform="matrix(1 0 0 1 159.844 130.703)" class="st8 st7">헤미셀란</text>
	<text transform="matrix(1 0 0 1 154.736 139.055)" class="st8 st7">(100μg/mL)</text>
</g>
<text transform="matrix(1 0 0 1 69.908 139.18)" class="st5 st7">(</text>
<text transform="matrix(1 0 0 1 72.067 139.18)" class="st5 st7">1</text>
<text transform="matrix(1 0 0 1 75.553 139.18)" class="st5 st7">0</text>
<text transform="matrix(1 0 0 1 79.15 139.18)" class="st5 st7">0</text>
<text transform="matrix(1 0 0 1 82.636 139.18)" class="st5 st7">n</text>
<text transform="matrix(1 0 0 1 86.355 139.18)" class="st5 st7">g</text>
<text transform="matrix(1 0 0 1 89.715 139.18)" class="st5 st7">/</text>
<text transform="matrix(1 0 0 1 92.361 139.18)" class="st5 st7">m</text>
<text transform="matrix(1 0 0 1 97.998 139.18)" class="st5 st7">l</text>
<text transform="matrix(1 0 0 1 99.56 139.18)" class="st5 st7">)</text>
<text transform="matrix(6.123234e-17 -1 1 6.123234e-17 8.126 86.5695)" class="st9 st6">O</text>
<text transform="matrix(6.123234e-17 -1 1 6.123234e-17 8.126 79.8439)" class="st9 st6">D</text>
<text transform="matrix(6.123234e-17 -1 1 6.123234e-17 10.533 71.2267)" class="st9 st10">405</text>
<text transform="matrix(6.123234e-17 -1 1 6.123234e-17 10.533 61.1301)" class="st9 st10">nm</text>
<text transform="matrix(1 0 0 1 62.567 10.56)" class="st11 st12 st13">라이소좀 효소 활성</text>
</svg>
